icons/ubuntu-logo.svg

<?xml version="1.0" encoding="UTF-8" standalone="no"?>
<svg
   height="24"
   id="svg7384"
   version="1.1"
   width="24"
   sodipodi:docname="ubuntu-logo.svg"
   inkscape:version="1.1 (ce6663b3b7, 2021-05-25)"
   xmlns:inkscape="http://www.inkscape.org/namespaces/inkscape"
   xmlns:sodipodi="http://sodipodi.sourceforge.net/DTD/sodipodi-0.dtd"
   xmlns="http://www.w3.org/2000/svg"
   xmlns:svg="http://www.w3.org/2000/svg"
   xmlns:rdf="http://www.w3.org/1999/02/22-rdf-syntax-ns#"
   xmlns:cc="http://creativecommons.org/ns#"
   xmlns:dc="http://purl.org/dc/elements/1.1/">
  <sodipodi:namedview
     pagecolor="#ffffff"
     bordercolor="#666666"
     borderopacity="1"
     objecttolerance="10"
     gridtolerance="10"
     guidetolerance="10"
     inkscape:pageopacity="0"
     inkscape:pageshadow="2"
     inkscape:window-width="1920"
     inkscape:window-height="1016"
     id="namedview21"
     showgrid="true"
     inkscape:zoom="21.566754"
     inkscape:cx="16.76191"
     inkscape:cy="8.8794076"
     inkscape:window-x="0"
     inkscape:window-y="27"
     inkscape:window-maximized="1"
     inkscape:current-layer="svg7384"
     inkscape:pagecheckerboard="0"
     width="24px">
    <inkscape:grid
       type="xygrid"
       id="grid846" />
  </sodipodi:namedview>
  <metadata
     id="metadata20854">
    <rdf:RDF>
      <cc:Work
         rdf:about="">
        <dc:format>image/svg+xml</dc:format>
        <dc:type
           rdf:resource="http://purl.org/dc/dcmitype/StillImage" />
      </cc:Work>
    </rdf:RDF>
  </metadata>
  <defs
     id="defs7386">
    <linearGradient
       id="linearGradient5606"
       inkscape:swatch="solid">
      <stop
         id="stop5608"
         offset="0"
         style="stop-color:#000000;stop-opacity:1;" />
    </linearGradient>
    <linearGradient
       id="linearGradient4526"
       inkscape:swatch="solid">
      <stop
         id="stop4528"
         offset="0"
         style="stop-color:#ffffff;stop-opacity:1;" />
    </linearGradient>
    <linearGradient
       id="linearGradient3600-4"
       inkscape:swatch="gradient">
      <stop
         id="stop3602-7"
         offset="0"
         style="stop-color:#f4f4f4;stop-opacity:1" />
      <stop
         id="stop3604-6"
         offset="1"
         style="stop-color:#dbdbdb;stop-opacity:1" />
    </linearGradient>
  </defs>
  <g
     id="layer9"
     label="status"
     style="display:inline"
     transform="translate(-593.0002,307)" />
  <g
     id="layer4"
     transform="translate(-352,-60)" />
  <g
     id="g1812"
     style="display:inline"
     transform="translate(-352,-60)" />
  <g
     id="g6217"
     transform="translate(-352,-60)" />
  <g
     id="layer3"
     style="display:inline"
     transform="translate(-352,-60)" />
  <g
     id="g1833"
     style="display:inline"
     transform="translate(-352,-60)" />
  <g
     id="layer1"
     transform="translate(-352,-60)" />
  <g
     id="g2872"
     style="fill:#808080;fill-opacity:1;stroke-width:0.8"
     transform="matrix(1.1112963,0,0,1.1112963,-0.22370365,-0.22370365)">
    <path
       d="m 11,2.001 c -4.97,0 -8.999,4.029 -8.999,8.999 0,4.97 4.029,8.998 8.999,8.998 4.971,0 8.998,-4.027 8.998,-8.998 0,-4.971 -4.027,-8.999 -8.998,-8.999 z m 2.092,3.055 c 0.334,-0.579 1.074,-0.777 1.652,-0.443 0.579,0.334 0.777,1.074 0.443,1.653 -0.334,0.579 -1.074,0.777 -1.653,0.443 -0.579,-0.334 -0.776,-1.074 -0.442,-1.653 z m -8.2,7.155 c -0.668,0 -1.21,-0.542 -1.21,-1.21 0,-0.669 0.542,-1.21 1.21,-1.21 0.668,0 1.21,0.542 1.21,1.21 10e-4,0.667 -0.541,1.21 -1.21,1.21 z m 1.073,0.107 c 0.383,-0.312 0.627,-0.786 0.627,-1.318 0,-0.532 -0.244,-1.007 -0.626,-1.318 0.326,-1.267 1.115,-2.349 2.174,-3.057 l 0.885,1.482 c -0.909,0.641 -1.504,1.697 -1.504,2.893 0,1.197 0.594,2.254 1.503,2.893 l -0.884,1.482 c -1.059,-0.707 -1.848,-1.789 -2.175,-3.057 z m 8.779,5.069 c -0.578,0.334 -1.318,0.137 -1.652,-0.443 -0.334,-0.578 -0.137,-1.318 0.442,-1.652 0.579,-0.334 1.319,-0.137 1.653,0.443 0.334,0.577 0.136,1.318 -0.443,1.652 z m -0.003,-2.637 c -0.46,-0.174 -0.992,-0.148 -1.452,0.117 -0.459,0.266 -0.748,0.713 -0.827,1.199 -0.447,0.125 -0.918,0.191 -1.405,0.191 -0.837,0 -1.628,-0.195 -2.331,-0.543 l 0.841,-1.508 c 0.453,0.211 0.958,0.328 1.49,0.328 1.847,0 3.363,-1.416 3.521,-3.221 l 1.725,0.025 c -0.084,1.334 -0.666,2.531 -1.562,3.412 z m -0.163,-4.063 c -0.158,-1.806 -1.674,-3.222 -3.521,-3.222 -0.532,0 -1.037,0.118 -1.49,0.329 l -0.84,-1.507 c 0.703,-0.348 1.494,-0.545 2.331,-0.545 0.487,0 0.958,0.068 1.405,0.191 0.079,0.486 0.368,0.935 0.827,1.2 0.46,0.266 0.992,0.292 1.451,0.118 0.896,0.88 1.479,2.077 1.562,3.411 z"
       id="path2874"
       style="fill:#808080;fill-opacity:1;stroke-width:0.8" />
  </g>
</svg>

<?xml version="1.0" encoding="UTF-8" standalone="no"?>
<svg
   xmlns:osb="http://www.openswatchbook.org/uri/2009/osb"
   xmlns:dc="http://purl.org/dc/elements/1.1/"
   xmlns:cc="http://creativecommons.org/ns#"
   xmlns:rdf="http://www.w3.org/1999/02/22-rdf-syntax-ns#"
   xmlns:svg="http://www.w3.org/2000/svg"
   xmlns="http://www.w3.org/2000/svg"
   xmlns:sodipodi="http://sodipodi.sourceforge.net/DTD/sodipodi-0.dtd"
   xmlns:inkscape="http://www.inkscape.org/namespaces/inkscape"
   height="16.000002"
   id="svg7384"
   version="1.1"
   width="16"
   sodipodi:docname="start-here-symbolic.svg"
   inkscape:version="1.0.2 (e86c870879, 2021-01-15)">
  <sodipodi:namedview
     pagecolor="#ffffff"
     bordercolor="#666666"
     borderopacity="1"
     objecttolerance="10"
     gridtolerance="10"
     guidetolerance="10"
     inkscape:pageopacity="0"
     inkscape:pageshadow="2"
     inkscape:window-width="1366"
     inkscape:window-height="704"
     id="namedview21"
     showgrid="true"
     inkscape:zoom="21.566754"
     inkscape:cx="26.184818"
     inkscape:cy="8.000001"
     inkscape:window-x="0"
     inkscape:window-y="0"
     inkscape:window-maximized="1"
     inkscape:current-layer="svg7384">
    <inkscape:grid
       type="xygrid"
       id="grid846" />
  </sodipodi:namedview>
  <metadata
     id="metadata20854">
    <rdf:RDF>
      <cc:Work
         rdf:about="">
        <dc:title></dc:title>
        <dc:format>image/svg+xml</dc:format>
        <dc:type
           rdf:resource="http://purl.org/dc/dcmitype/StillImage" />
      </cc:Work>
    </rdf:RDF>
  </metadata>
  <defs
     id="defs7386">
    <linearGradient
       id="linearGradient5606"
       osb:paint="solid">
      <stop
         id="stop5608"
         offset="0"
         style="stop-color:#000000;stop-opacity:1;" />
    </linearGradient>
    <linearGradient
       id="linearGradient4526"
       osb:paint="solid">
      <stop
         id="stop4528"
         offset="0"
         style="stop-color:#ffffff;stop-opacity:1;" />
    </linearGradient>
    <linearGradient
       id="linearGradient3600-4"
       osb:paint="gradient">
      <stop
         id="stop3602-7"
         offset="0"
         style="stop-color:#f4f4f4;stop-opacity:1" />
      <stop
         id="stop3604-6"
         offset="1"
         style="stop-color:#dbdbdb;stop-opacity:1" />
    </linearGradient>
  </defs>
  <g
     id="layer9"
     label="status"
     style="display:inline"
     transform="translate(-593.0002,307)" />
  <g
     id="layer4"
     transform="translate(-352,-60)" />
  <g
     id="g1812"
     style="display:inline"
     transform="translate(-352,-60)" />
  <g
     id="g6217"
     transform="translate(-352,-60)" />
  <g
     id="layer3"
     style="display:inline"
     transform="translate(-352,-60)" />
  <g
     id="g1833"
     style="display:inline"
     transform="translate(-352,-60)" />
  <g
     id="layer1"
     transform="translate(-352,-60)" />
  <g
     id="g2872"
     style="fill:#808080;fill-opacity:1"
     transform="matrix(0.88903706,0,0,0.88903706,-1.7789632,-1.7789632)">
    <path
       d="M 11,2.001 C 6.03,2.001 2.001,6.03 2.001,11 c 0,4.97 4.029,8.998 8.999,8.998 4.971,0 8.998,-4.027 8.998,-8.998 0,-4.971 -4.027,-8.999 -8.998,-8.999 z m 2.092,3.055 c 0.334,-0.579 1.074,-0.777 1.652,-0.443 0.579,0.334 0.777,1.074 0.443,1.653 C 14.853,6.845 14.113,7.043 13.534,6.709 12.955,6.375 12.758,5.635 13.092,5.056 Z m -8.2,7.155 c -0.668,0 -1.21,-0.542 -1.21,-1.21 0,-0.669 0.542,-1.21 1.21,-1.21 0.668,0 1.21,0.542 1.21,1.21 10e-4,0.667 -0.541,1.21 -1.21,1.21 z m 1.073,0.107 C 6.348,12.006 6.592,11.532 6.592,11 6.592,10.468 6.348,9.993 5.966,9.682 6.292,8.415 7.081,7.333 8.14,6.625 L 9.025,8.107 C 8.116,8.748 7.521,9.804 7.521,11 c 0,1.197 0.594,2.254 1.503,2.893 L 8.14,15.375 C 7.081,14.668 6.292,13.586 5.965,12.318 Z m 8.779,5.069 c -0.578,0.334 -1.318,0.137 -1.652,-0.443 -0.334,-0.578 -0.137,-1.318 0.442,-1.652 0.579,-0.334 1.319,-0.137 1.653,0.443 0.334,0.577 0.136,1.318 -0.443,1.652 z M 14.741,14.75 c -0.46,-0.174 -0.992,-0.148 -1.452,0.117 -0.459,0.266 -0.748,0.713 -0.827,1.199 -0.447,0.125 -0.918,0.191 -1.405,0.191 -0.837,0 -1.628,-0.195 -2.331,-0.543 l 0.841,-1.508 c 0.453,0.211 0.958,0.328 1.49,0.328 1.847,0 3.363,-1.416 3.521,-3.221 l 1.725,0.025 c -0.084,1.334 -0.666,2.531 -1.562,3.412 z M 14.578,10.687 C 14.42,8.881 12.904,7.465 11.057,7.465 c -0.532,0 -1.037,0.118 -1.49,0.329 L 8.727,6.287 c 0.703,-0.348 1.494,-0.545 2.331,-0.545 0.487,0 0.958,0.068 1.405,0.191 0.079,0.486 0.368,0.935 0.827,1.2 0.46,0.266 0.992,0.292 1.451,0.118 0.896,0.88 1.479,2.077 1.562,3.411 z"
       id="path2874"
       style="fill:#808080;fill-opacity:1" />
  </g>
</svg>
